X:6180
T:Sourkraut
O:england
S:Digital Tradition, srkraut
B:From Devil's Ditties, Thomas
M:2/4
L:1/8
Q:1/4=100
W:If you wat to know how to make the sourkraut
W:Just open up your ears and I'll tell you all about;
W:It isn't made of leather as many suppose,
W:It's made of the good old flower we call the cabbage rose.
W:
W:  Chorus:
W:  Sourkraut is splendid, sourkraut is fine
W:  We thinks we ought to know him, for we eats him all the time;
W:  Sourkraut is splendid, sourkraut is fine
W:  We thinks we ought to know him, for we eats him all the time.
W:
W:When this flower grows up just as big as he can be,
W:We cuts him in small pieces, no bigg'er'n a pea,
W:We puts him in the barrel, where he begins to smell
W:S'help me goodncss gracious, don't this Dutchman love him well
W:
W:Puts in some cayenne pepper, we don't put any snuff,
W:We puts a little salt and some other kind of stuff.
W:Puts him in a barrel and whcn he begins to smell
W:S'help me goodness gracious, don't this Dutchman love him well
W:
W:When this kraut begins to smell till he can't get any smeller,
W:Puts him in a barrel and takes him down the cellar,
W:Puts him in a kittle and when he begins to bile
W:Bet you forty dollars you can smell him fifty mile.
K:F
C3/2C/ |F3/2F/ F2|A2 AG|FA G-E|F2 F-A|\
cc cc|c2 cc|d3/2G/ GG|G3/2z/ A2|
cc cc|dd2c|c-G GA|c2 C2|\
FF/F/ FF|A2 AG|FA GE|F2 ||


